img/ISO.svg

<svg width="113" height="47" viewBox="0 0 113 47" fill="none" xmlns="http://www.w3.org/2000/svg">
<path d="M0.287994 46.0001H10.912V1.20006H0.287994V46.0001ZM39.634 46.6401C51.858 46.6401 59.346 40.4961 59.346 31.1521C59.346 23.4721 54.482 19.0561 45.33 17.9041L37.01 16.8161C34.77 16.4961 32.018 15.7281 32.018 12.9121C32.018 10.2881 34.322 8.62406 37.65 8.62406C41.362 8.62406 43.666 10.2881 44.434 13.6161L55.762 13.5521C55.122 5.55206 48.274 0.560059 38.034 0.560059C27.602 0.560059 21.33 5.80806 21.33 14.0641C21.33 20.9121 25.554 24.8801 33.938 25.9681L43.09 27.1201C45.586 27.5041 48.21 28.4001 48.21 31.7921C48.21 35.5681 45.01 37.8081 39.826 37.8081C33.426 37.8081 29.586 34.4161 29.202 28.3361H17.17C17.618 38.8321 25.81 46.6401 39.634 46.6401ZM87.947 46.6401C101.899 46.6401 112.331 36.7841 112.331 23.6001C112.331 10.4801 101.899 0.560059 87.947 0.560059C73.995 0.560059 63.563 10.4801 63.563 23.6001C63.563 36.7841 73.995 46.6401 87.947 46.6401ZM87.947 37.1041C80.203 37.1041 74.763 31.5361 74.763 23.6001C74.763 15.7281 80.203 10.1601 87.947 10.1601C95.691 10.1601 101.131 15.7281 101.131 23.6001C101.131 31.5361 95.691 37.1041 87.947 37.1041Z" fill="#050038"/>
</svg>

<svg width="113" height="47" fill="none" xmlns="http://www.w3.org/2000/svg"><path d="M.288 46h10.624V1.2H.288V46zm39.346.64c12.224 0 19.712-6.144 19.712-15.488 0-7.68-4.864-12.096-14.016-13.248l-8.32-1.088c-2.24-.32-4.992-1.088-4.992-3.904 0-2.624 2.304-4.288 5.632-4.288 3.712 0 6.016 1.664 6.784 4.992l11.328-.064C55.122 5.552 48.274.56 38.034.56 27.602.56 21.33 5.808 21.33 14.064c0 6.848 4.224 10.816 12.608 11.904l9.152 1.152c2.496.384 5.12 1.28 5.12 4.672 0 3.776-3.2 6.016-8.384 6.016-6.4 0-10.24-3.392-10.624-9.472H17.17c.448 10.496 8.64 18.304 22.464 18.304zm48.313 0c13.952 0 24.384-9.856 24.384-23.04 0-13.12-10.432-23.04-24.384-23.04S63.563 10.48 63.563 23.6c0 13.184 10.432 23.04 24.384 23.04zm0-9.536c-7.744 0-13.184-5.568-13.184-13.504 0-7.872 5.44-13.44 13.184-13.44 7.744 0 13.184 5.568 13.184 13.44 0 7.936-5.44 13.504-13.184 13.504z" fill="#050038"/></svg>
